floor-lamp-torchiere-outline.svg

<svg fill="currentColor" viewBox="0 0 24 24"><path d="m14 4-1.3 3h-1.4L10 4zm3-2H7l3 7h4zm-4 18h3v2H8v-2h3V10h2z"/></svg>

<svg  viewBox="0 0 24 24" fill="currentColor"><path  d="M14 4L12.7 7H11.3L10 4H14M17 2H7L10 9H14L17 2M13 20H16V22H8V20H11V10H13V20Z"/></svg>
